X: 27616
T: Moon And The Seven Stars, The
R: jig
M: 6/8
K: Dmajor
c|:d2A A2F|GAB A3|Bcd efg|~f3 ecA|
d2A A2F|GAB A3|Bcd efg|1 Adc d2c:|2 Adc d2d||
|:e2A e2A|efg Tf2 z|efg fed|cdB A2A|
~B3 A2A|~B3 A2A|Bcd efg|1 Adc d2d:|2 Adc d2c||

